icons/image-minimal-circle.svg

<svg xmlns="http://www.w3.org/2000/svg" viewBox="0 0 24 24" fill="currentColor">
  <path d="M12 3.75c-4.58579 0-8.25 3.66421-8.25 8.25 0 .5793.06105 1.1464.17723 1.6948 2.16656-.9766 7.00267-2.4716 16.28057-2.5427C19.7886 6.97071 16.2993 3.75 12 3.75Zm8.2251 8.902c-9.4117.0715-14.02855 1.6317-15.84877 2.4874C5.61246 18.1144 8.5475 20.25 12 20.25c4.3663 0 7.8971-3.3218 8.2251-7.598ZM2.25 12c0-5.41421 4.33579-9.75 9.75-9.75 5.4142 0 9.75 4.33579 9.75 9.75 0 5.4142-4.3358 9.75-9.75 9.75-5.41962 0-9.75-4.4412-9.75-9.75ZM8.5 7.75c-.41421 0-.75.33579-.75.75s.33579.75.75.75.75-.33579.75-.75-.33579-.75-.75-.75Zm-2.25.75c0-1.24264 1.00736-2.25 2.25-2.25s2.25 1.00736 2.25 2.25-1.00736 2.25-2.25 2.25S6.25 9.74264 6.25 8.5Z"/>
</svg>

<svg width="24" height="24" viewBox="0 0 24 24" fill="none" xmlns="http://www.w3.org/2000/svg">
<path fill-rule="evenodd" clip-rule="evenodd" d="M12 3.75C7.41421 3.75 3.75 7.41421 3.75 12C3.75 12.5793 3.81105 13.1464 3.92723 13.6948C6.09379 12.7182 10.9299 11.2232 20.2078 11.1521C19.7886 6.97071 16.2993 3.75 12 3.75ZM20.2251 12.652C10.8134 12.7235 6.19655 14.2837 4.37633 15.1394C5.61246 18.1144 8.5475 20.25 12 20.25C16.3663 20.25 19.8971 16.9282 20.2251 12.652ZM2.25 12C2.25 6.58579 6.58579 2.25 12 2.25C17.4142 2.25 21.75 6.58579 21.75 12C21.75 17.4142 17.4142 21.75 12 21.75C6.58038 21.75 2.25 17.3088 2.25 12ZM8.5 7.75C8.08579 7.75 7.75 8.08579 7.75 8.5C7.75 8.91421 8.08579 9.25 8.5 9.25C8.91421 9.25 9.25 8.91421 9.25 8.5C9.25 8.08579 8.91421 7.75 8.5 7.75ZM6.25 8.5C6.25 7.25736 7.25736 6.25 8.5 6.25C9.74264 6.25 10.75 7.25736 10.75 8.5C10.75 9.74264 9.74264 10.75 8.5 10.75C7.25736 10.75 6.25 9.74264 6.25 8.5Z" fill="black"/>
</svg>
